svgs/light/shield-cross.svg

<svg xmlns="http://www.w3.org/2000/svg" viewBox="0 0 512 512"><!--! Font Awesome Pro 6.0.0-alpha3 by @fontawesome - https://fontawesome.com License - https://fontawesome.com/license (Commercial License) --><path d="M466.5 83.71l-192-80C268.6 1.203 262.3 0 256.1 0S243.5 1.203 237.6 3.703L45.61 83.71C27.73 91.08 16 108.6 16 127.1C16 385.4 205.4 512 255.9 512C305.2 512 496 387.3 496 127.1C496 108.6 484.3 91.08 466.5 83.71zM463.9 128.3c0 225.3-166.2 351.7-207.8 351.7C213.3 479.1 48 352.2 48 128c0-6.5 3.875-12.25 9.75-14.75l192-80c1.973-.8275 4.109-1.266 6.258-1.266c2.071 0 4.154 .4072 6.117 1.266l192 80C463.3 117.1 463.9 125.8 463.9 128.3zM384 176h-112V96c0-8.844-7.156-16-16-16S240 87.16 240 96v80H128C119.2 176 112 183.2 112 192S119.2 208 128 208h112V416c0 8.844 7.156 16 16 16s16-7.156 16-16V208H384c8.844 0 16-7.156 16-16S392.8 176 384 176z"/></svg>

<svg xmlns="http://www.w3.org/2000/svg" viewBox="0 0 512 512"><!-- Font Awesome Pro 6.0.0-alpha2 by @fontawesome - https://fontawesome.com License - https://fontawesome.com/license (Commercial License) --><path d="M466.5 83.75L274.5 3.75C268.625 1.25 262.344 0 256.062 0S243.5 1.25 237.625 3.75L45.625 83.75C27.75 91.125 16 108.625 16 128C16 385.451 205.434 512 255.938 512C305.196 512 496 387.357 496 128C496 108.625 484.25 91.125 466.5 83.75ZM463.875 128.317C463.875 353.649 297.657 479.969 256.063 479.969C213.3 479.969 48 352.242 48 128C48 121.5 51.875 115.75 57.75 113.25L249.75 33.25C251.723 32.422 253.859 31.984 256.008 31.984C258.079 31.984 260.162 32.391 262.125 33.25L454.125 113.25C463.272 117.061 463.875 125.848 463.875 128.317ZM384 176H272V96C272 87.156 264.844 80 256 80S240 87.156 240 96V176H128C119.156 176 112 183.156 112 192S119.156 208 128 208H240V416C240 424.844 247.156 432 256 432S272 424.844 272 416V208H384C392.844 208 400 200.844 400 192S392.844 176 384 176Z "></path></svg>
